assets/icons/moon.svg

<svg width="313" height="313" viewBox="0 0 313 313" fill="none" xmlns="http://www.w3.org/2000/svg">
<g clip-path="url(#clip0)">
<path d="M305.6 178.053C302.4 177.253 299.2 178.053 296.4 180.053C286 188.853 274 196.053 260.8 200.853C248.4 205.653 234.8 208.053 220.4 208.053C188 208.053 158.4 194.853 137.2 173.653C116 152.453 102.8 122.853 102.8 90.4529C102.8 76.8529 105.2 63.653 109.2 51.653C113.6 38.853 120 27.253 128.4 17.253C132 12.853 131.2 6.45295 126.8 2.85295C124 0.852949 120.8 0.0529495 117.6 0.852949C83.6 10.0529 54 30.4529 32.8 57.653C12.4 84.4529 0 117.653 0 154.053C0 197.653 17.6 237.253 46.4 266.053C75.2 294.853 114.8 312.453 158.4 312.453C195.2 312.453 229.2 299.653 256.4 278.453C284 256.853 304 226.053 312.4 190.853C314.4 184.853 311.2 179.253 305.6 178.053ZM244.4 261.653C221.2 280.053 191.6 291.253 159.2 291.253C121.2 291.253 86.8 275.653 62 250.853C37.2 226.053 21.6 191.653 21.6 153.653C21.6 122.053 32 93.2529 50 70.0529C62.4 54.0529 78 40.853 96 31.653C94 36.053 92 40.4529 90.4 45.2529C85.2 59.6529 82.8 74.8529 82.8 90.8529C82.8 128.853 98.4 163.653 123.2 188.453C148 213.253 182.8 228.853 220.8 228.853C237.6 228.853 253.6 226.053 268.4 220.453C273.6 218.453 278.8 216.453 283.6 214.053C274 232.453 260.8 248.853 244.4 261.653Z" fill="#353535"/>
</g>
<defs>
<clipPath id="clip0">
<rect width="312.999" height="312.999" fill="white"/>
</clipPath>
</defs>
</svg>

<?xml version="1.0" encoding="iso-8859-1"?>
<!-- Generator: Adobe Illustrator 19.0.0, SVG Export Plug-In . SVG Version: 6.00 Build 0)  -->
<svg version="1.1" id="Capa_1" xmlns="http://www.w3.org/2000/svg" xmlns:xlink="http://www.w3.org/1999/xlink" x="0px" y="0px"
	 viewBox="0 0 312.999 312.999" style="enable-background:new 0 0 312.999 312.999;" xml:space="preserve">
<g>
	<g>
		<path d="M305.6,178.053c-3.2-0.8-6.4,0-9.2,2c-10.4,8.8-22.4,16-35.6,20.8c-12.4,4.8-26,7.2-40.4,7.2c-32.4,0-62-13.2-83.2-34.4
			c-21.2-21.2-34.4-50.8-34.4-83.2c0-13.6,2.4-26.8,6.4-38.8c4.4-12.8,10.8-24.4,19.2-34.4c3.6-4.4,2.8-10.8-1.6-14.4
			c-2.8-2-6-2.8-9.2-2c-34,9.2-63.6,29.6-84.8,56.8c-20.4,26.8-32.8,60-32.8,96.4c0,43.6,17.6,83.2,46.4,112s68.4,46.4,112,46.4
			c36.8,0,70.8-12.8,98-34c27.6-21.6,47.6-52.4,56-87.6C314.4,184.853,311.2,179.253,305.6,178.053z M244.4,261.653
			c-23.2,18.4-52.8,29.6-85.2,29.6c-38,0-72.4-15.6-97.2-40.4c-24.8-24.8-40.4-59.2-40.4-97.2c0-31.6,10.4-60.4,28.4-83.6
			c12.4-16,28-29.2,46-38.4c-2,4.4-4,8.8-5.6,13.6c-5.2,14.4-7.6,29.6-7.6,45.6c0,38,15.6,72.8,40.4,97.6s59.6,40.4,97.6,40.4
			c16.8,0,32.8-2.8,47.6-8.4c5.2-2,10.4-4,15.2-6.4C274,232.453,260.8,248.853,244.4,261.653z"/>
	</g>
</g>
<g>
</g>
<g>
</g>
<g>
</g>
<g>
</g>
<g>
</g>
<g>
</g>
<g>
</g>
<g>
</g>
<g>
</g>
<g>
</g>
<g>
</g>
<g>
</g>
<g>
</g>
<g>
</g>
<g>
</g>
</svg>
